src/assets/icons/pet.svg

<?xml version="1.0" encoding="UTF-8"?>
<svg width="94px" height="70px" viewBox="0 0 94 70" version="1.1" xmlns="http://www.w3.org/2000/svg" xmlns:xlink="http://www.w3.org/1999/xlink">
    <!-- Generator: Sketch 57.1 (83088) - https://sketch.com -->
    <title>Icon/Big/Pet</title>
    <desc>Created with Sketch.</desc>
    <g id="assets" stroke="none" stroke-width="1" fill="none" fill-rule="evenodd">
        <g id="styleguide" transform="translate(-568.000000, -716.000000)" fill="#FFFFFF">
            <g id="Icon/Big/Pet" transform="translate(568.000000, 716.000000)">
                <g id="Group-17">
                    <path d="M67.2673495,59.6556081 C67.6471475,60.0160135 67.6613899,60.6147973 67.2996323,60.9922297 C61.8058545,66.7379054 54.3950465,69.9020946 46.4325818,69.9020946 C38.7359758,69.9020946 31.4989253,66.9157432 26.0564202,61.4926351 C25.6851677,61.1237162 25.6851677,60.5249324 26.0564202,60.1550676 C26.4267232,59.7861486 27.0277535,59.7861486 27.3990061,60.1550676 C32.4835515,65.2206081 39.2430061,68.0102027 46.4325818,68.0102027 C53.8699758,68.0102027 60.7927434,65.0541216 65.9247636,59.6877703 C66.2874707,59.3084459 66.8875515,59.2952027 67.2673495,59.6556081 Z M75.4047111,8.75718919 C79.7790343,12.435973 84.1011354,22.1290811 88.2808121,31.5043514 C88.9340646,32.9696216 89.5825697,34.4235405 90.2244283,35.8415135 C93.4593576,42.9767838 94.1657818,48.5039459 92.3845293,52.7370541 C90.2329737,57.8536757 84.727802,60.2346216 79.7372566,62.065973 C78.905499,62.3705676 78.050004,62.520973 77.2030545,62.520973 C75.7446303,62.520973 74.3108929,62.0754324 73.0566101,61.2051622 C71.0930545,59.8401622 69.9204283,57.603 69.9204283,55.2192162 L69.9204283,11.490027 C69.9204283,10.1477297 70.7246505,8.90854054 71.9694384,8.33245946 C73.1344687,7.79327027 74.4504687,7.95691892 75.4047111,8.75718919 Z M21.369998,8.33245946 C22.6147859,8.90854054 23.4190081,10.1477297 23.4190081,11.490027 L23.4190081,55.2192162 C23.4190081,57.603 22.2463818,59.8401622 20.2828263,61.2051622 C19.0294929,62.0754324 17.5948061,62.520973 16.1363818,62.520973 C15.2884828,62.520973 14.4339374,62.3705676 13.6021798,62.065973 C8.61163434,60.2346216 3.10646263,57.8536757 0.954907071,52.7370541 C-0.826345455,48.5039459 -0.119921212,42.9767838 3.11500808,35.8415135 C3.75686667,34.4235405 4.40537172,32.9696216 5.05862424,31.5043514 C9.23830101,22.1290811 13.560402,12.435973 17.9347253,8.75718919 C18.8880182,7.95691892 20.2030687,7.79327027 21.369998,8.33245946 Z M73.3860848,9.90840541 C73.1192768,9.90840541 72.893297,9.99164865 72.7698626,10.0484054 C72.331196,10.2508378 71.8194182,10.7512432 71.8194182,11.490027 L71.8194182,55.2192162 C71.8194182,57.0108378 72.6663677,58.6274595 74.1428323,59.6528649 C75.6088525,60.6716486 77.4090949,60.9034054 79.0811556,60.2904324 C83.9083879,58.5196216 88.7764485,56.4215135 90.6336606,52.0067838 C92.1993778,48.2835405 91.4996,43.2501622 88.4944485,36.6190811 C87.8497414,35.1992162 87.1993374,33.7405676 86.5451354,32.2724595 C82.4528121,23.093 78.2209131,13.6004324 74.1798626,10.2035405 C73.9121051,9.97840541 73.632004,9.90840541 73.3860848,9.90840541 Z M19.9533515,9.90840541 C19.7074323,9.90840541 19.4273313,9.97840541 19.1595737,10.2035405 C15.1185232,13.6004324 10.8866242,23.093 6.79430101,32.2724595 C6.14009899,33.7405676 5.48969495,35.1992162 4.84593737,36.6190811 C1.83983636,43.2501622 1.14005859,48.2835405 2.70577576,52.0067838 C4.56298788,56.4215135 9.43104848,58.5196216 14.2582808,60.2904324 C15.9312909,60.9034054 17.7305838,60.6716486 19.196604,59.6528649 C20.6730687,58.6274595 21.5200182,57.0108378 21.5200182,55.2192162 L21.5200182,11.490027 C21.5200182,10.7512432 21.0082404,10.2508378 20.5695737,10.0484054 C20.4461394,9.99164865 20.2201596,9.90840541 19.9533515,9.90840541 Z M46.6701455,44.9968514 C50.3152566,44.9968514 53.2700848,46.9596892 53.2700848,49.3813108 C53.2700848,51.8019865 50.3152566,53.7648243 46.6701455,53.7648243 C43.0240848,53.7648243 40.0702061,51.8019865 40.0702061,49.3813108 C40.0702061,46.9596892 43.0240848,44.9968514 46.6701455,44.9968514 Z M32.7362121,32.5773378 C33.9515657,32.5773378 34.9361919,33.5582838 34.9361919,34.7690946 C34.9361919,35.9789595 33.9515657,36.9599054 32.7362121,36.9599054 C31.5208586,36.9599054 30.5362323,35.9789595 30.5362323,34.7690946 C30.5362323,33.5582838 31.5208586,32.5773378 32.7362121,32.5773378 Z M60.6035091,32.5773378 C61.8179131,32.5773378 62.8034889,33.5582838 62.8034889,34.7690946 C62.8034889,35.9789595 61.8179131,36.9599054 60.6035091,36.9599054 C59.3881556,36.9599054 58.4035293,35.9789595 58.4035293,34.7690946 C58.4035293,33.5582838 59.3881556,32.5773378 60.6035091,32.5773378 Z M46.9069495,0.946324324 C54.6045051,0.946324324 61.8406061,3.93172973 67.2831111,9.35389189 C67.6543636,9.72375676 67.6543636,10.3225405 67.2831111,10.6914595 C66.9128081,11.0613243 66.3117778,11.0613243 65.9405253,10.6914595 C60.8569293,5.62686486 54.0974747,2.83821622 46.9069495,2.83821622 C39.4695556,2.83821622 32.5467879,5.7942973 27.4147677,11.1597027 C27.2277172,11.3555135 26.978,11.4538919 26.7273333,11.4538919 C26.4918586,11.4538919 26.2563838,11.3668649 26.0721818,11.1928108 C25.6923838,10.8324054 25.6781414,10.2336216 26.039899,9.85618919 C31.5336768,4.10956757 38.9444848,0.946324324 46.9069495,0.946324324 Z" id="Combined-Shape"></path>
                </g>
            </g>
        </g>
    </g>
</svg>

<svg width="94" height="70" xmlns="http://www.w3.org/2000/svg"><path d="M67.267 59.656c.38.36.394.959.033 1.336-5.494 5.746-12.905 8.91-20.867 8.91-7.697 0-14.934-2.986-20.377-8.41a.942.942 0 010-1.337.953.953 0 011.343 0c5.085 5.066 11.844 7.855 19.034 7.855 7.437 0 14.36-2.956 19.492-8.322a.951.951 0 011.342-.032zm8.138-50.899C79.779 12.436 84.1 22.13 88.28 31.504c.653 1.466 1.302 2.92 1.943 4.338 3.235 7.135 3.942 12.662 2.16 16.895-2.151 5.117-7.656 7.498-12.647 9.329a7.361 7.361 0 01-2.534.455 7.244 7.244 0 01-4.146-1.316 7.296 7.296 0 01-3.137-5.986V11.49c0-1.342.805-2.581 2.05-3.158 1.164-.539 2.48-.375 3.435.425zM21.37 8.332c1.245.577 2.049 1.816 2.049 3.158v43.73a7.296 7.296 0 01-3.136 5.985 7.242 7.242 0 01-4.147 1.316c-.848 0-1.702-.15-2.534-.455-4.99-1.831-10.496-4.212-12.647-9.329-1.781-4.233-1.075-9.76 2.16-16.895.642-1.418 1.29-2.872 1.944-4.338 4.18-9.375 8.501-19.068 12.876-22.747.953-.8 2.268-.964 3.435-.425zm52.016 1.576a1.51 1.51 0 00-.616.14c-.439.203-.95.703-.95 1.442v43.73c0 1.79.846 3.407 2.323 4.433a5.333 5.333 0 004.938.637c4.827-1.77 9.695-3.868 11.553-8.283 1.565-3.723.866-8.757-2.14-15.388a682.812 682.812 0 01-1.949-4.347C82.453 23.093 78.221 13.6 74.18 10.204a1.205 1.205 0 00-.794-.296zm-53.433 0c-.246 0-.526.07-.793.296-4.041 3.396-8.273 12.889-12.366 22.068a741.264 741.264 0 01-1.948 4.347C1.84 43.25 1.14 48.284 2.706 52.007c1.857 4.415 6.725 6.513 11.552 8.283a5.333 5.333 0 004.939-.637 5.333 5.333 0 002.323-4.434V11.49c0-.739-.512-1.24-.95-1.442a1.51 1.51 0 00-.617-.14zM46.67 44.997c3.645 0 6.6 1.963 6.6 4.384 0 2.421-2.955 4.384-6.6 4.384-3.646 0-6.6-1.963-6.6-4.384 0-2.421 2.954-4.384 6.6-4.384zm-13.934-12.42c1.216 0 2.2.981 2.2 2.192 0 1.21-.984 2.19-2.2 2.19-1.215 0-2.2-.98-2.2-2.19s.985-2.192 2.2-2.192zm27.868 0c1.214 0 2.2.981 2.2 2.192 0 1.21-.986 2.19-2.2 2.19-1.216 0-2.2-.98-2.2-2.19s.984-2.192 2.2-2.192zM46.907.947c7.698 0 14.934 2.985 20.376 8.407a.942.942 0 010 1.337.95.95 0 01-1.342 0c-5.084-5.064-11.844-7.853-19.034-7.853-7.437 0-14.36 2.956-19.492 8.322a.947.947 0 01-1.343.033.942.942 0 01-.032-1.337C31.534 4.11 38.944.946 46.907.946z" fill="#FFF" fill-rule="evenodd"/></svg>
